X:014 
T:Bay Shore Jig*, The
F:file ID: cre.5/014bay_s
B:CRE5.001 (gan ainm)
M:6/8
Q:160
R:jig
K:D
F|D2d dAF|dAF D2F|D2d dcd|eED E2F|
"5"D2B dAF|ABc dAF|GeG FdF|EDF E2:|
B|"9"d2f afb|afe d2f|dfg afa|bgd e2f|
"13"d2f afa|bag fed|gbg faf|ABc e2f|
"17"d2f afb|afd d2f|dfg afa|bgf e2g|
"21"fga efg|fed edA|Bcd AFd|AFD HD3|]

%%%

